src/img/illus-backend.svg

<?xml version="1.0" encoding="UTF-8" standalone="no"?>
<svg width="67px" height="68px" viewBox="0 0 67 68" version="1.1" xmlns="http://www.w3.org/2000/svg" xmlns:xlink="http://www.w3.org/1999/xlink" xmlns:sketch="http://www.bohemiancoding.com/sketch/ns">
    <!-- Generator: Sketch 3.5.2 (25235) - http://www.bohemiancoding.com/sketch -->
    <title>illus-backend</title>
    <desc>Created with Sketch.</desc>
    <defs></defs>
    <g id="Page-1" stroke="none" stroke-width="1" fill="none" fill-rule="evenodd" sketch:type="MSPage">
        <g id="Desktop-HD" sketch:type="MSArtboardGroup" transform="translate(-95.000000, -1750.000000)" fill="#FFFFFF">
            <g id="illus-backend" sketch:type="MSLayerGroup" transform="translate(95.000000, 1750.000000)">
                <path d="M33.2949946,67.3007284 C14.9723379,67.3007284 0.118167568,52.4471613 0.118167568,34.1239014 C0.118167568,15.8012446 14.9723379,0.947074349 33.2949946,0.947074349 C51.6176513,0.947074349 66.4718216,15.8012446 66.4718216,34.1239014 C66.4718216,52.4471613 51.6176513,67.3007284 33.2949946,67.3007284 Z" id="Fill-311" sketch:type="MSShapeGroup"></path>
                <path d="M46,35.3967595 C46,33.1776421 44.6430081,31.2818036 42.722605,30.5013945 C41.2020921,26.743376 38.7438521,25.2162162 35.7338256,25.2162162 C32.9043696,25.2162162 30.4523295,26.8443517 29.2503338,29.2270653 C27.3369055,28.4043873 25.1801331,29.7710818 25.1003101,31.8868751 C23.3581526,32.5076018 22.1081081,34.1795717 22.1081081,36.1505549 C22.1081081,38.6498994 24.1137592,40.6756757 26.5874988,40.6756757 L41.5206093,40.6756757 C41.5206093,40.6756757 46,39.8365597 46,35.3967595" id="Fill-7028" stroke="#C04E83" stroke-width="1.4" sketch:type="MSShapeGroup"></path>
                <path d="M21.2370657,46.161919 C17.3520082,42.4377001 15.4072705,37.2411767 15.9011861,31.9068169 C16.7944755,22.2652863 25.4154685,15.1443197 35.1179512,16.0310385 L34.7945646,19.5287491 L46,13.4999392 L36.0907619,5.54054054 L35.7664916,9.03737321 C22.1816021,7.79508894 10.1129187,17.7649689 8.86266711,31.2632873 C8.17083176,38.7310399 10.8922275,46.0038899 16.3288341,51.2162162 L21.2370657,46.161919 Z" id="Fill-7030" stroke="#C04E83" stroke-width="1.4" sketch:type="MSShapeGroup"></path>
                <path d="M45.465637,21.1353783 C49.3506945,24.8595972 51.2954322,30.0561206 50.8015166,35.3904804 C49.9082272,45.032011 41.2872342,52.1538555 31.5847515,51.2662588 L31.9081381,47.7685482 L20.7027027,53.7973581 L30.6119408,61.7567568 L30.9362111,58.2599241 C44.5211006,59.5022084 56.589784,49.5323284 57.8400356,36.034888 C58.5318709,28.5671354 55.8104752,21.2942853 50.3738686,16.0810811 L45.465637,21.1353783 Z" id="Fill-7031" stroke="#C04E83" stroke-width="1.4" sketch:type="MSShapeGroup"></path>
            </g>
        </g>
    </g>
</svg>

<svg width="67" height="68" viewBox="0 0 67 68" xmlns="http://www.w3.org/2000/svg">
    <title>
        illus-backend
    </title>
    <g fill="#FFF" fill-rule="evenodd">
        <path d="M33.295 67.3C14.972 67.3.118 52.448.118 34.125S14.972.947 33.295.947s33.177 14.854 33.177 33.177S51.618 67.3 33.295 67.3z"/>
        <path d="M46 35.397a5.276 5.276 0 0 0-3.277-4.896c-1.52-3.758-3.98-5.285-6.99-5.285-2.829 0-5.28 1.628-6.483 4.011-1.913-.823-4.07.544-4.15 2.66a4.52 4.52 0 0 0-2.992 4.264c0 2.499 2.006 4.525 4.48 4.525H41.52s4.48-.84 4.48-5.28" stroke="#C04E83" stroke-width="1.4"/>
        <path d="M21.237 46.162c-3.885-3.724-5.83-8.92-5.336-14.255.893-9.642 9.514-16.763 19.217-15.876l-.323 3.498L46 13.499l-9.91-7.958-.324 3.496C22.182 7.795 10.113 17.765 8.863 31.263c-.692 7.468 2.03 14.74 7.466 19.953l4.908-5.054zm24.229-25.027c3.885 3.725 5.83 8.921 5.336 14.255-.894 9.642-9.515 16.764-19.217 15.876l.323-3.497-11.205 6.028 9.909 7.96.324-3.497c13.585 1.242 25.654-8.728 26.904-22.225.692-7.468-2.03-14.74-7.466-19.954l-4.908 5.054z" stroke="#C04E83" stroke-width="1.4"/>
    </g>
</svg>
